src/components/footer/img/brands/instagram.svg

<svg width="22" height="22" viewBox="0 0 22 22" fill="none" xmlns="http://www.w3.org/2000/svg">
<path d="M7.20312 7.20312C8.26562 6.14062 9.54688 5.60938 11.0469 5.60938C12.5469 5.60938 13.8125 6.14062 14.8438 7.20312C15.9062 8.23438 16.4375 9.5 16.4375 11C16.4375 12.5 15.9062 13.7812 14.8438 14.8438C13.8125 15.875 12.5469 16.3906 11.0469 16.3906C9.54688 16.3906 8.26562 15.875 7.20312 14.8438C6.17188 13.7812 5.65625 12.5 5.65625 11C5.65625 9.5 6.17188 8.23438 7.20312 7.20312ZM8.5625 13.4844C9.25 14.1719 10.0781 14.5156 11.0469 14.5156C12.0156 14.5156 12.8438 14.1719 13.5312 13.4844C14.2188 12.7969 14.5625 11.9688 14.5625 11C14.5625 10.0312 14.2188 9.20312 13.5312 8.51562C12.8438 7.82812 12.0156 7.48438 11.0469 7.48438C10.0781 7.48438 9.25 7.82812 8.5625 8.51562C7.875 9.20312 7.53125 10.0312 7.53125 11C7.53125 11.9688 7.875 12.7969 8.5625 13.4844ZM17.5156 4.53125C17.7656 4.75 17.8906 5.03125 17.8906 5.375C17.8906 5.71875 17.7656 6.01563 17.5156 6.26562C17.2969 6.51562 17.0156 6.64062 16.6719 6.64062C16.3281 6.64062 16.0312 6.51562 15.7812 6.26562C15.5312 6.01563 15.4062 5.71875 15.4062 5.375C15.4062 5.03125 15.5312 4.75 15.7812 4.53125C16.0312 4.28125 16.3281 4.15625 16.6719 4.15625C17.0156 4.15625 17.2969 4.28125 17.5156 4.53125ZM21.5 6.6875C21.5312 7.53125 21.5469 8.96875 21.5469 11C21.5469 13.0312 21.5312 14.4688 21.5 15.3125C21.4062 17.2188 20.8281 18.7031 19.7656 19.7656C18.7344 20.7969 17.2656 21.3438 15.3594 21.4062C14.5156 21.4688 13.0781 21.5 11.0469 21.5C9.01562 21.5 7.57812 21.4688 6.73438 21.4062C4.82812 21.3125 3.35938 20.75 2.32812 19.7188C1.92188 19.3438 1.59375 18.9062 1.34375 18.4062C1.09375 17.9062 0.90625 17.4219 0.78125 16.9531C0.6875 16.4844 0.640625 15.9375 0.640625 15.3125C0.578125 14.4688 0.546875 13.0312 0.546875 11C0.546875 8.96875 0.578125 7.51563 0.640625 6.64062C0.734375 4.76562 1.29688 3.3125 2.32812 2.28125C3.35938 1.21875 4.82812 0.640625 6.73438 0.546875C7.57812 0.515625 9.01562 0.5 11.0469 0.5C13.0781 0.5 14.5156 0.515625 15.3594 0.546875C17.2656 0.640625 18.7344 1.21875 19.7656 2.28125C20.8281 3.3125 21.4062 4.78125 21.5 6.6875ZM19.25 17.1875C19.3438 16.9375 19.4219 16.625 19.4844 16.25C19.5469 15.8438 19.5938 15.375 19.625 14.8438C19.6562 14.2812 19.6719 13.8281 19.6719 13.4844C19.6719 13.1406 19.6719 12.6562 19.6719 12.0312C19.6719 11.4062 19.6719 11.0625 19.6719 11C19.6719 10.9062 19.6719 10.5625 19.6719 9.96875C19.6719 9.34375 19.6719 8.85938 19.6719 8.51562C19.6719 8.17188 19.6562 7.73437 19.625 7.20312C19.5938 6.64062 19.5469 6.17188 19.4844 5.79688C19.4219 5.39062 19.3438 5.0625 19.25 4.8125C18.875 3.84375 18.2031 3.17188 17.2344 2.79688C16.9844 2.70312 16.6562 2.625 16.25 2.5625C15.875 2.5 15.4062 2.45313 14.8438 2.42188C14.3125 2.39062 13.875 2.375 13.5312 2.375C13.2188 2.375 12.7344 2.375 12.0781 2.375C11.4531 2.375 11.1094 2.375 11.0469 2.375C10.9844 2.375 10.6406 2.375 10.0156 2.375C9.39062 2.375 8.90625 2.375 8.5625 2.375C8.21875 2.375 7.76562 2.39062 7.20312 2.42188C6.67188 2.45313 6.20312 2.5 5.79688 2.5625C5.42188 2.625 5.10938 2.70312 4.85938 2.79688C3.89062 3.17188 3.21875 3.84375 2.84375 4.8125C2.75 5.0625 2.67188 5.39062 2.60938 5.79688C2.54688 6.17188 2.5 6.64062 2.46875 7.20312C2.4375 7.73437 2.42188 8.17188 2.42188 8.51562C2.42188 8.82812 2.42188 9.3125 2.42188 9.96875C2.42188 10.5938 2.42188 10.9375 2.42188 11C2.42188 11.125 2.42188 11.4219 2.42188 11.8906C2.42188 12.3281 2.42188 12.7031 2.42188 13.0156C2.42188 13.2969 2.42188 13.6719 2.42188 14.1406C2.45312 14.6094 2.48438 15.0156 2.51562 15.3594C2.54688 15.6719 2.59375 16 2.65625 16.3438C2.71875 16.6875 2.78125 16.9688 2.84375 17.1875C3.25 18.1562 3.92188 18.8281 4.85938 19.2031C5.10938 19.2969 5.42188 19.375 5.79688 19.4375C6.20312 19.5 6.67188 19.5469 7.20312 19.5781C7.76562 19.6094 8.20312 19.625 8.51562 19.625C8.85938 19.625 9.34375 19.625 9.96875 19.625C10.625 19.625 10.9844 19.625 11.0469 19.625C11.1406 19.625 11.4844 19.625 12.0781 19.625C12.7031 19.625 13.1875 19.625 13.5312 19.625C13.875 19.625 14.3125 19.6094 14.8438 19.5781C15.4062 19.5469 15.875 19.5 16.25 19.4375C16.6562 19.375 16.9844 19.2969 17.2344 19.2031C18.2031 18.7969 18.875 18.125 19.25 17.1875Z" fill="url(#paint0_linear)"/>
<defs>
<linearGradient id="paint0_linear" x1="11" y1="1" x2="11" y2="25" gradientUnits="userSpaceOnUse">
<stop stop-color="#BC9CFF"/>
<stop offset="1" stop-color="#8BA4F9"/>
</linearGradient>
</defs>
</svg>

<svg xmlns="http://www.w3.org/2000/svg" width="22" height="22" fill="none"><path fill="url(#a)" d="M7.2 7.2c1.07-1.06 2.35-1.6 3.85-1.6s2.76.54 3.8 1.6c1.06 1.03 1.6 2.3 1.6 3.8s-.54 2.78-1.6 3.84c-1.04 1.04-2.3 1.55-3.8 1.55s-2.78-.52-3.85-1.56C6.17 13.78 5.66 12.5 5.66 11s.5-2.77 1.54-3.8zm1.36 6.28c.7.7 1.52 1.04 2.5 1.04.96 0 1.78-.35 2.47-1.04.7-.68 1.03-1.5 1.03-2.48 0-.97-.34-1.8-1.03-2.48-.7-.7-1.5-1.04-2.48-1.04-.97 0-1.8.35-2.5 1.04-.68.68-1.02 1.5-1.02 2.48 0 .97.34 1.8 1.03 2.48zm8.96-8.95c.25.22.37.5.37.84 0 .35-.13.65-.38.9-.22.25-.5.37-.85.37-.34 0-.64-.12-.9-.37-.24-.25-.36-.55-.36-.9 0-.34.13-.62.38-.84.25-.25.55-.37.9-.37.34 0 .62.12.84.37zM21.5 6.7c.03.83.05 2.27.05 4.3s-.02 3.47-.05 4.3c-.1 1.92-.67 3.4-1.73 4.47-1.04 1.03-2.5 1.57-4.4 1.64-.85.07-2.3.1-4.32.1-2.03 0-3.47-.03-4.32-.1-1.9-.1-3.37-.65-4.4-1.68-.4-.38-.74-.8-1-1.3-.24-.5-.42-1-.55-1.47-.1-.47-.14-1-.14-1.64-.06-.83-.1-2.27-.1-4.3s.04-3.48.1-4.36c.1-1.87.66-3.33 1.7-4.36C3.35 1.22 4.83.64 6.73.55 7.57.52 9 .5 11.03.5c2.04 0 3.48.02 4.32.05 1.9.1 3.37.67 4.4 1.73 1.07 1.03 1.65 2.5 1.74 4.4zm-2.25 10.5c.1-.26.17-.57.23-.95.07-.4.1-.88.14-1.4.04-.57.05-1.02.05-1.37 0-.34 0-.82 0-1.45 0-.62 0-.97 0-1.03 0-.1 0-.44 0-1.03 0-.63 0-1.1 0-1.45 0-.35 0-.8-.05-1.32-.03-.56-.07-1.03-.14-1.4-.06-.4-.14-.74-.23-1-.38-.96-1.05-1.63-2.02-2-.25-.1-.57-.17-.98-.24-.38-.06-.84-.1-1.4-.14-.54-.03-.97-.04-1.32-.04-.3 0-.8 0-1.45 0-.63 0-.97 0-1.03 0-.07 0-.4 0-1.03 0s-1.1 0-1.46 0c-.34 0-.8 0-1.36.04-.53.03-1 .08-1.4.14-.38.06-.7.14-.94.24-.97.37-1.64 1.04-2.02 2-.1.26-.17.6-.23 1-.05.37-.1.84-.13 1.4-.03.53-.05.97-.05 1.32 0 .3 0 .8 0 1.45 0 .62 0 .97 0 1.03 0 .13 0 .42 0 .9 0 .43 0 .8 0 1.12 0 .28 0 .65 0 1.12.03.47.06.88.1 1.22.03.3.07.64.14.98.06.35.12.63.18.85.4.96 1.08 1.63 2.02 2 .25.1.56.18.94.24.4.06.87.1 1.4.14.57.03 1 .05 1.32.05.34 0 .82 0 1.45 0 .65 0 1 0 1.08 0 .1 0 .43 0 1.03 0 .62 0 1.1 0 1.45 0 .35 0 .78-.02 1.3-.05.58-.03 1.04-.08 1.42-.14.4-.07.73-.14.98-.24.97-.4 1.64-1.07 2.02-2z"/><defs><linearGradient id="a" x1="11" x2="11" y1="1" y2="25" gradientUnits="userSpaceOnUse"><stop stop-color="#BC9CFF"/><stop offset="1" stop-color="#8BA4F9"/></linearGradient></defs></svg>
